brandFactory_export/2.Regular/Flecha derecha_2Regular.svg

<?xml version="1.0" encoding="UTF-8"?>
<svg width="24px" height="24px" viewBox="0 0 24 24" version="1.1" xmlns="http://www.w3.org/2000/svg" xmlns:xlink="http://www.w3.org/1999/xlink">
    <title>2.Regular/Flecha derecha_2Regular</title>
    <g id="Symbols" stroke="none" stroke-width="1" fill="none" fill-rule="evenodd">
        <g id="2.Regular/Flecha-derecha_2Regular" fill="#5CB615" fill-rule="nonzero">
            <path d="M6.31428571,23.6571445 C5.95462185,23.6571445 5.61176471,23.502521 5.3697479,23.2369748 C4.88907563,22.6991597 4.92268908,21.8789916 5.44369748,21.3815126 L15.6285714,11.7579832 L5.45042017,2.31932773 C4.92605042,1.82521008 4.88907563,1.00504202 5.36638655,0.463865546 C5.82689076,-0.0605042017 6.62352941,-0.114285714 7.14789916,0.346218487 C7.15798319,0.356302521 7.16806723,0.36302521 7.17815126,0.373109244 L18.3915966,10.7764706 C18.6605042,11.0252101 18.8118208,11.3747899 18.8118208,11.7411765 C18.8151261,12.107563 18.6672269,12.4605042 18.4016807,12.712605 L7.18487395,23.307563 C6.95085113,23.5323607 6.63878592,23.6576687 6.31428571,23.6571445" id="Path"></path>
        </g>
    </g>
</svg>

<svg width="24" height="24" viewBox="0 0 24 24" xmlns="http://www.w3.org/2000/svg"><path d="M6.314 23.657c-.36 0-.702-.154-.944-.42a1.335 1.335 0 01.074-1.855l10.185-9.624L5.45 2.319A1.335 1.335 0 015.366.464 1.262 1.262 0 017.148.346l.03.027 11.214 10.403c.269.25.42.599.42.965.003.367-.145.72-.41.972L7.185 23.308c-.234.224-.546.35-.87.35" fill="#5CB615" fill-rule="nonzero"/></svg>
